X:10
T: Boil The Breakfast Early
M: 4/4
L: 1/8
R: reel
K: Gmaj
|G3B AD~D2|GB~B2 c2BA|G2 BG ADDF| GE~E2 c2BA|
|G3B AD~D2| GB~B2  c2 Bc|dBcA BGAF| GE~E2 c2 Bc||
|d2 fd edB^c|d2 ef g2 fe|d2 fd edBA|  GE~E2 c2 Bc|
|d2 fd edB^c|d2 ef g2 fg|af (3gfe fdcA |  GE~E2 c2 Bc||
|dA~A2 dAFA|dA~A2 defe|dA~A2 dAFA| GE~E2 c2 Bc|
|dA~A2 dAFA|d2d^c defe| d2cA (3Bcd AF|G2Bd gdBA ||
